images/branding.svg

<svg xmlns="http://www.w3.org/2000/svg" viewBox="0 0 556.5 532.5" enable-background="new 0 0 556.5 532.5"><style type="text/css">.st0{fill:#F2F2F2;} .st1{fill:#D2D3D4;} .st2{fill:#424143;} .st3{fill:#80CECA;} .st4{fill:#E6B7D5;} .st5{fill:#FEE56D;} .st6{fill:#E7E7E7;} .st7{fill:#727373;} .st8{fill:#5E5F5F;}</style><path class="st0" d="M448.6 119.5v327.6h-296.1v-408.5h217.2"/><path class="st1" d="M369.7 119.5h79l-79-80.9v80.9z"/><path class="st2" d="M179.1 101.7h82.8v6h-82.8v-6zm0 13.5h82.8v6h-82.8v-6z"/><circle class="st3" cx="186" cy="80.7" r="9.3"/><circle class="st4" cx="220.6" cy="80.7" r="9.3"/><circle class="st5" cx="252.3" cy="80.7" r="9.3"/><path class="st6" d="M369.7 164h145v91.2h-145v-91.2z"/><circle class="st3" cx="388" cy="187.7" r="7.4"/><circle class="st4" cx="415.4" cy="187.7" r="7.4"/><circle class="st5" cx="440.7" cy="187.7" r="7.4"/><path class="st2" d="M380.7 232.4v4.4h74.3v-4.4h-74.3zm0-12.3v4.4h102.6v-4.4h-102.6zm0-12.5v4.4h74.3v-4.4h-74.3z"/><path d="M255.6 489.9h-206.4l18.7-56.6h169.6z"/><path class="st7" d="M57 489.9h192.9v12.5h-192.9z"/><path class="st8" d="M105.9 414.6h96.3v18.7h-96.3z"/><path class="st2" d="M185.9 414.6h-64.3l11.6-19.1h40.4z"/><path class="st4" d="M199.5 226.4c0 1.6 0 3.2-.3 4.9v.3l-2.5 10.6-27.5 118.1v35.3h-32.1v-35.3l-27.3-118.3-2.5-10.6v-.3c-.1-1.6-.3-3.2-.3-4.9 0-25.1 20.3-45.7 45.4-46h.7c25.7-.1 46.4 20.6 46.4 46.2z"/></svg>

<?xml version="1.0" encoding="utf-8"?>
<!-- Generator: Adobe Illustrator 19.2.1, SVG Export Plug-In . SVG Version: 6.00 Build 0)  -->
<svg version="1.1" id="Layer_1" xmlns="http://www.w3.org/2000/svg" xmlns:xlink="http://www.w3.org/1999/xlink" x="0px" y="0px"
	 viewBox="0 0 556.5 532.5" style="enable-background:new 0 0 556.5 532.5;" xml:space="preserve">
<style type="text/css">
	.st0{fill:#F2F2F2;}
	.st1{fill:#D2D3D4;}
	.st2{fill:#424143;}
	.st3{fill:#80CECA;}
	.st4{fill:#E6B7D5;}
	.st5{fill:#FEE56D;}
	.st6{fill:#E7E7E7;}
	.st7{fill:#727373;}
	.st8{fill:#5E5F5F;}
</style>
<path class="st0" d="M448.6,119.5v327.6H152.5V38.6h217.2"/>
<path class="st1" d="M369.7,119.5h79l-79-80.9V119.5z"/>
<path class="st2" d="M179.1,101.7h82.8v6h-82.8L179.1,101.7z M179.1,115.2h82.8v6h-82.8L179.1,115.2z"/>
<circle class="st3" cx="186" cy="80.7" r="9.3"/>
<circle class="st4" cx="220.6" cy="80.7" r="9.3"/>
<circle class="st5" cx="252.3" cy="80.7" r="9.3"/>
<path class="st6" d="M369.7,164h145v91.2h-145V164z"/>
<circle class="st3" cx="388" cy="187.7" r="7.4"/>
<circle class="st4" cx="415.4" cy="187.7" r="7.4"/>
<circle class="st5" cx="440.7" cy="187.7" r="7.4"/>
<path class="st2" d="M380.7,232.4v4.4H455v-4.4H380.7z M380.7,220.1v4.4h102.6v-4.4H380.7z M380.7,207.6v4.4H455v-4.4H380.7z"/>
<polygon points="255.6,489.9 49.2,489.9 67.9,433.3 237.5,433.3 "/>
<rect x="57" y="489.9" class="st7" width="192.9" height="12.5"/>
<rect x="105.9" y="414.6" class="st8" width="96.3" height="18.7"/>
<polygon class="st2" points="185.9,414.6 121.6,414.6 133.2,395.5 173.6,395.5 "/>
<path class="st4" d="M199.5,226.4c0,1.6,0,3.2-0.3,4.9v0.3l-2.5,10.6l-27.5,118.1v35.3h-32.1v-35.3L109.8,242l-2.5-10.6v-0.3
	c-0.1-1.6-0.3-3.2-0.3-4.9c0-25.1,20.3-45.7,45.4-46h0.7C178.8,180.1,199.5,200.8,199.5,226.4z"/>
</svg>
